X: 1589
T: Mullingar Races, The
R:hornpipe
N:"2nd Setting" "Collected by J. O'Neill"
B:O'Neill's 1589
Z:Transcribed by Michael Hogan
M:2/4
L:1/16
K:G
D2 | GABG ABcA | BcdB cedc | (3BdB G>B (3AcA F>A | (3GBA (3 GFE D2D2  |
GABG ABcA | BcdB cedc | (3BdB G>B (3AcA FA | G2G2 G2 :|
d2 | gfga gdBd | gfga gdBd | efge abag | fdec d2(dc) |
(3Bcd B>G AFDc | (3Bcd B>G AFDc | BdcB AcBA | G2G2 G2 :||


